X: 1
T: a Recent Fall
C: David A. Kaynor July 2015
F: https://dl.dropboxusercontent.com/u/54565722/Recent%20Fall%2C%20A%20%28harmonized%20one%20page%29.pdf
R: jig
Z: 2015 John Chambers <jc:trillian.mit.edu>
M: 6/8
L: 1/8
K: Em
% - - - - - - - - - -
V: 1 staves=2
[|\
"Em"EFE EB,E | EFE EB,E | EFE G2A | B3 B3 |\
"Am"ABA AEG | ABA AEG | ABA ABc | "B7"B3 B3 |
"Em"EFE EB,E | EFE EB,E | EFE G2A | B3 B3 |\
"Am"ABA AEF | "Em"G2B, EGA | "B7"BcB AGF | "Em"E3- E2B |]
"Am"cea aec | cea a2f | "Em"geB G2A | B3 B2G |\
"Am"ABA AEG | ABA AEG | ABA ABc | "B7"B3 B3 |
"Am"cea aec | cea a2f | "Em"geB G2A | B3 B2G |\
"Am"ABA AEF | "Em"G2B, EGA | "B7"BcB AGF | "Em"E3- E3 |]
% - - - - - - - - - -
V: 2
[|\
"Em"B,2B, B,G,B, | B,2B, B,G,B, | B,2B, E2F | G3 G3 |
"Am"EGE ECE | EGE ECE | EGE EGA | "B7"F3 F3 |
"Em"B,2B, B,G,B, | B,2B, B,G,B, | B,DB, E2F | G3 G3 |
"Am"EGE ECE | "Em"E2B, B,EF | "B7"F2F F2B, | "Em"B,3 B,2B |]
"Am"Ace ecA | Ace e2^d | "Em"eBG E2F | G3 G2E |
"Am"EGE ECE | EGE ECE | EGE EGA | F3 F3 |
"Am"Ace ecA | Ace e2^d | "Em"eBG E2F | G3 G2E |
"Am"EGE ECE | "Em"E2G, B,EF | "B7"FAF F2B, | "Em"B,3 B,3 |]

%%sep 1 1 500

